src/assets/outline/ReceiveSquare2.svg

<svg width="24" height="24" viewBox="0 0 24 24"  xmlns="http://www.w3.org/2000/svg">
<path d="M15 22.75H9C3.57 22.75 1.25 20.43 1.25 15V9C1.25 3.57 3.57 1.25 9 1.25H15C20.43 1.25 22.75 3.57 22.75 9V15C22.75 20.43 20.43 22.75 15 22.75ZM9 2.75C4.39 2.75 2.75 4.39 2.75 9V15C2.75 19.61 4.39 21.25 9 21.25H15C19.61 21.25 21.25 19.61 21.25 15V9C21.25 4.39 19.61 2.75 15 2.75H9Z" />
<path d="M14.8298 14.0901H10.5898C10.1798 14.0901 9.83984 13.7501 9.83984 13.3401C9.83984 12.9301 10.1798 12.5901 10.5898 12.5901H14.0798V9.1001C14.0798 8.6901 14.4198 8.3501 14.8298 8.3501C15.2398 8.3501 15.5798 8.6901 15.5798 9.1001V13.3401C15.5798 13.7601 15.2398 14.0901 14.8298 14.0901Z" />
<path d="M14.8299 14.0901C14.6399 14.0901 14.4499 14.0201 14.2999 13.8701L8.63986 8.21013C8.34986 7.92013 8.34986 7.44012 8.63986 7.15012C8.92986 6.86012 9.40986 6.86012 9.69986 7.15012L15.3599 12.8101C15.6499 13.1001 15.6499 13.5801 15.3599 13.8701C15.2099 14.0201 15.0199 14.0901 14.8299 14.0901Z" />
<path d="M12 18.2302C9.88995 18.2302 7.76995 17.8902 5.75995 17.2202C5.36995 17.0902 5.15995 16.6602 5.28995 16.2702C5.41995 15.8802 5.84996 15.6602 6.23996 15.8002C9.95996 17.0402 14.05 17.0402 17.77 15.8002C18.16 15.6702 18.59 15.8802 18.72 16.2702C18.85 16.6602 18.64 17.0902 18.25 17.2202C16.23 17.9002 14.11 18.2302 12 18.2302Z" />
</svg>

<?xml version="1.0" encoding="UTF-8"?>
<svg width="24" height="24" viewBox="0 0 24 24" xmlns="http://www.w3.org/2000/svg">
 <path d="m15 22.75h-6c-5.43 0-7.75-2.32-7.75-7.75v-6c0-5.43 2.32-7.75 7.75-7.75h6c5.43 0 7.75 2.32 7.75 7.75v6c0 5.43-2.32 7.75-7.75 7.75zm-6-20c-4.61 0-6.25 1.64-6.25 6.25v6c0 4.61 1.64 6.25 6.25 6.25h6c4.61 0 6.25-1.64 6.25-6.25v-6c0-4.61-1.64-6.25-6.25-6.25h-6z"/>
 <path d="m14.83 14.09h-4.24c-0.41 0-0.74996-0.34-0.74996-0.75s0.33996-0.75 0.74996-0.75h3.49v-3.49c0-0.41 0.34-0.75 0.75-0.75s0.75 0.34 0.75 0.75v4.24c0 0.42-0.34 0.75-0.75 0.75z"/>
 <path d="m14.83 14.09c-0.19 0-0.38-0.07-0.53-0.22l-5.66-5.66c-0.29-0.29-0.29-0.77001 0-1.06s0.77-0.29 1.06 0l5.66 5.66c0.29 0.29 0.29 0.77 0 1.06-0.15 0.15-0.34 0.22-0.53 0.22z"/>
 <path d="m12 18.23c-2.11 0-4.23-0.34-6.24-1.01-0.39-0.13-0.6-0.56-0.47-0.95s0.56001-0.61 0.95001-0.47c3.72 1.24 7.81 1.24 11.53 0 0.39-0.13 0.82 0.08 0.95 0.47s-0.08 0.82-0.47 0.95c-2.02 0.68-4.14 1.01-6.25 1.01z"/>
</svg>
